src/components/icons/SVG/external.svg

<!-- Generated by IcoMoon.io -->
<svg version="1.1" xmlns="http://www.w3.org/2000/svg" width="32" height="32" viewBox="0 0 32 32">
<title>external</title>
<path d="M22.068 5.818h-4.613v-5.818h14.545v14.545h-5.818v-4.613l-11.034 11.034-4.114-4.114 11.034-11.034zM26.182 26.182v-5.818h5.818v11.636h-32v-32h11.636v5.818h-5.818v20.364h20.364z"></path>
</svg>

<svg xmlns="http://www.w3.org/2000/svg" width="32" height="32"><path d="M22.068 5.818h-4.613V0H32v14.545h-5.818V9.932L15.148 20.966l-4.114-4.114L22.068 5.818zm4.114 20.364v-5.818H32V32H0V0h11.636v5.818H5.818v20.364h20.364z"/></svg>
